chrome/icons/add-to.svg

<svg width="16" height="16" viewBox="0 0 16 16" fill="none" xmlns="http://www.w3.org/2000/svg">
<g clip-path="url(#clip0_52_1141)">
<path d="M0 8C0 7.26667 0.0958333 6.55972 0.2875 5.87917C0.479167 5.19862 0.748612 4.56112 1.09583 3.96667C1.44306 3.37222 1.85972 2.83195 2.34583 2.34583C2.83195 1.85972 3.37222 1.44306 3.96667 1.09583C4.56112 0.748612 5.19862 0.479167 5.87917 0.2875C6.55972 0.0958333 7.26667 0 8 0C8.73333 0 9.44028 0.0958333 10.1208 0.2875C10.8014 0.479167 11.4375 0.748612 12.0292 1.09583C12.6208 1.44306 13.1611 1.86112 13.65 2.35C14.1389 2.83888 14.557 3.37917 14.9042 3.97083C15.2514 4.5625 15.5208 5.19862 15.7125 5.87917C15.9042 6.55972 16 7.26667 16 8C16 8.73333 15.9042 9.44028 15.7125 10.1208C15.5208 10.8014 15.2514 11.4389 14.9042 12.0333C14.557 12.6278 14.1403 13.1681 13.6542 13.6542C13.1681 14.1403 12.6278 14.557 12.0333 14.9042C11.4389 15.2514 10.8014 15.5208 10.1208 15.7125C9.44028 15.9042 8.73333 16 8 16C7.26112 16 6.55138 15.9042 5.87083 15.7125C5.19028 15.5208 4.55417 15.2514 3.9625 14.9042C3.37083 14.557 2.83195 14.1403 2.34583 13.6542C1.85972 13.1681 1.44306 12.6292 1.09583 12.0375C0.748612 11.4458 0.479167 10.8083 0.2875 10.125C0.0958333 9.44167 0 8.73333 0 8ZM14.9333 8C14.9333 7.36112 14.85 6.74722 14.6833 6.15833C14.5167 5.56945 14.2833 5.01805 13.9833 4.50417C13.6833 3.99028 13.3222 3.52222 12.9 3.1C12.4778 2.67778 12.0097 2.31667 11.4958 2.01667C10.982 1.71667 10.4306 1.48334 9.84167 1.31667C9.25278 1.15 8.63888 1.06667 8 1.06667C7.36112 1.06667 6.74722 1.15 6.15833 1.31667C5.56945 1.48334 5.01805 1.71667 4.50417 2.01667C3.99028 2.31667 3.52222 2.67778 3.1 3.1C2.67778 3.52222 2.31667 3.99028 2.01667 4.50417C1.71667 5.01805 1.48333 5.56945 1.31667 6.15833C1.15 6.74722 1.06667 7.36112 1.06667 8C1.06667 8.63888 1.15 9.25278 1.31667 9.84167C1.48333 10.4306 1.71667 10.982 2.01667 11.4958C2.31667 12.0097 2.67778 12.4778 3.1 12.9C3.52222 13.3222 3.99028 13.6833 4.50417 13.9833C5.01805 14.2833 5.56945 14.5167 6.15833 14.6833C6.74722 14.85 7.36112 14.9333 8 14.9333C8.63888 14.9333 9.25278 14.85 9.84167 14.6833C10.4306 14.5167 10.982 14.2833 11.4958 13.9833C12.0097 13.6833 12.4778 13.3222 12.9 12.9C13.3222 12.4778 13.6833 12.0097 13.9833 11.4958C14.2833 10.982 14.5167 10.4306 14.6833 9.84167C14.85 9.25278 14.9333 8.63888 14.9333 8ZM7.46667 8.53333H4.8C4.65555 8.53333 4.53055 8.48055 4.425 8.375C4.31945 8.26945 4.26667 8.14445 4.26667 8C4.26667 7.85555 4.31945 7.73055 4.425 7.625C4.53055 7.51945 4.65555 7.46667 4.8 7.46667H7.46667V4.8C7.46667 4.65555 7.51945 4.53055 7.625 4.425C7.73055 4.31945 7.85555 4.26667 8 4.26667C8.14445 4.26667 8.26945 4.31945 8.375 4.425C8.48055 4.53055 8.53333 4.65555 8.53333 4.8V7.46667H11.2C11.3445 7.46667 11.4695 7.51945 11.575 7.625C11.6806 7.73055 11.7333 7.85555 11.7333 8C11.7333 8.14445 11.6806 8.26945 11.575 8.375C11.4695 8.48055 11.3445 8.53333 11.2 8.53333H8.53333V11.2C8.53333 11.3445 8.48055 11.4695 8.375 11.575C8.26945 11.6806 8.14445 11.7333 8 11.7333C7.85555 11.7333 7.73055 11.6806 7.625 11.575C7.51945 11.4695 7.46667 11.3445 7.46667 11.2V8.53333Z" fill="context-fill" fill-opacity="context-fill-opacity"/>
</g>
<defs>
<clipPath id="clip0_52_1141">
<rect width="16" height="16" fill="white"/>
</clipPath>
</defs>
</svg>

<svg xmlns="http://www.w3.org/2000/svg" width="16" height="16" fill="none" viewBox="0 0 16 16"><g clip-path="url(#a)"><path fill="context-fill" fill-opacity="context-fill-opacity" d="M0 8q0-1.1.288-2.12a8.2 8.2 0 0 1 .808-1.913 7.96 7.96 0 0 1 2.87-2.871A8.2 8.2 0 0 1 5.88.287 7.8 7.8 0 0 1 8 0q1.1 0 2.12.288 1.022.286 1.91.808a8 8 0 0 1 1.62 1.254 8.04 8.04 0 0 1 2.063 3.53Q16 6.9 16 8t-.287 2.12a8.2 8.2 0 0 1-.809 1.913 7.96 7.96 0 0 1-2.87 2.871 8.2 8.2 0 0 1-1.913.809A7.8 7.8 0 0 1 8 16a7.8 7.8 0 0 1-2.13-.287 8.012 8.012 0 0 1-3.525-2.058 8 8 0 0 1-2.057-3.53A7.8 7.8 0 0 1 0 8m14.933 0a6.7 6.7 0 0 0-.25-1.842 7 7 0 0 0-.7-1.654A7 7 0 0 0 12.9 3.1a7 7 0 0 0-1.404-1.083 7 7 0 0 0-1.654-.7A6.7 6.7 0 0 0 8 1.067a6.7 6.7 0 0 0-1.842.25q-.883.25-1.654.7T3.1 3.1 2.017 4.504a7 7 0 0 0-.7 1.654A6.7 6.7 0 0 0 1.067 8q0 .959.25 1.842a7 7 0 0 0 .7 1.654q.45.771 1.083 1.404t1.404 1.083a7 7 0 0 0 1.654.7 6.7 6.7 0 0 0 1.842.25 6.7 6.7 0 0 0 1.842-.25q.883-.25 1.654-.7T12.9 12.9t1.083-1.404.7-1.654A6.7 6.7 0 0 0 14.933 8m-7.466.533H4.8a.51.51 0 0 1-.375-.158A.51.51 0 0 1 4.267 8q0-.217.158-.375a.51.51 0 0 1 .375-.158h2.667V4.8q0-.217.158-.375A.51.51 0 0 1 8 4.267q.217 0 .375.158t.158.375v2.667H11.2q.217 0 .375.158.159.158.158.375 0 .217-.158.375a.51.51 0 0 1-.375.158H8.533V11.2q0 .217-.158.375a.51.51 0 0 1-.375.158.51.51 0 0 1-.375-.158.51.51 0 0 1-.158-.375z"/></g><defs><clipPath id="a"><path fill="#fff" d="M0 0h16v16H0z"/></clipPath></defs></svg>
